material/.icons/material/dice-d4-outline.svg

<svg xmlns="http://www.w3.org/2000/svg" viewBox="0 0 24 24"><path d="M13.43 15.15h.86v1.21h-.86V18h-1.51v-1.64h-3.1l-.07-.95 3.16-4.99h1.52v4.73m-3.18 0h1.67v-2.68l-1.67 2.68M22 21H2c-.36 0-.69-.19-.87-.5a.97.97 0 01.02-1l10-16.5c.35-.62 1.35-.62 1.71 0l10 16.5A.993.993 0 0122 21M3.78 19h16.45L12 5.43 3.78 19z"/></svg>

<?xml version="1.0" encoding="UTF-8"?><!DOCTYPE svg PUBLIC "-//W3C//DTD SVG 1.1//EN" "http://www.w3.org/Graphics/SVG/1.1/DTD/svg11.dtd"><svg xmlns="http://www.w3.org/2000/svg" xmlns:xlink="http://www.w3.org/1999/xlink" version="1.1" id="mdi-dice-d4-outline" width="24" height="24" viewBox="0 0 24 24"><path d="M13.43,15.15H14.29V16.36H13.43V18H11.92V16.36H8.82L8.75,15.41L11.91,10.42H13.43V15.15M10.25,15.15H11.92V12.47L10.25,15.15M22,21H2C1.64,21 1.31,20.81 1.13,20.5C0.95,20.18 0.96,19.79 1.15,19.5L11.15,3C11.5,2.38 12.5,2.38 12.86,3L22.86,19.5C23.04,19.79 23.05,20.18 22.87,20.5C22.69,20.81 22.36,21 22,21M3.78,19H20.23L12,5.43L3.78,19Z" /></svg>
